!!!OTL-incipit: ICH WEISS NICHT OB ICH DARF TRAUEN MICHEL
!!!ARE: Europa, Mitteleuropa, Deutschland
!!!SCT: Z0130
!!!TXL: @@DE
!!!YEM: Copyright 1995, estate of Helmut Schaffrath.
**kern	**text
*ICvox	*
!! Mixed meters:  3/4; 2/4
*M3/4	*
*k[f#c#]	*
*D:	*
!LO:TX:a:t=Volkslied mit untermiſchter Nede.	!
{8d	Jch
8f#	weiß
=1	=1
(4a	nicht,
8f#)	.
8f#	ob
8g	ich
8a	darf
=2	=2
8bL	trau-
8cc#J	.
4dd}	-en
{8a	Mi-
8a	-chel,
=3	=3
4.a	mei-
8f#	-nem
8e	gro-
8e	-ßen
=4	=4
4e	Knecht;
4r}	.
{8d	denn
8f#	ich
=5	=5
(4a	merk',
8f#)	.
8f#	bei
8g	mei-
8a	-ner
=6	=6
8bL	Frau-
8cc#J	.
4dd}	-en
{8a	iſt
8a	der
=7	=7
4.a	Schlingel
8f#	.
8e	e-
8e	-ben
=8	=8
4e	recht.
8r}	.
{8d	Sie
8c#	ſetʒt
8d	ihm
=9	=9
4e	oft
4f#	mein
8g	Mütʒchen
8f#	.
=10	=10
4.e}	auf,
{8d	und
8c#	küßt
8d	ihn
=11	=11
4e	wohl
4f#	noch
8g	o-
8f#	-ben-
=12	=12
8e;}	-drauf.
!LO:TX:a:t=Das dind und freilich gany unschuldige Späße;	!
{8d	in-
8d	-deſ-
8d	-ſen
8dd	taugts
8b	doch
=13	=13
(4a	nicht
8f#)	.
8f#	und
8g	iſt
8a	nicht
=14	=14
(8bL	recht,
8cc#	.
8ddJ)}	.
{8b/	daß
8a	mei-
8a	-ne
=15	=15
4.a	Frau
8f#	nicht
8e	le-
8e	-ben
=16	=16
*M2/4	*
4e	kann
4r}	.
=17	=17
{4.dd	oh-
8a	-ne
=18	=18
4f#	Mi-
4f#	-chel,
=19	=19
4e	ih-
4e	-ren
=20	=20
4d	Knecht.
4r}	.
==	==
!!!AGN: Erzaehlung, lustige Romanze
!!!ONB: ESAC (Essen Associative Code) Database: ZUCCAL
!!!AMT: irregular
!!!AIN: vox
!!!EED: Helmut Schaffrath
!!!EEV: 1.0
!!!GTL: II. Erzahlungen, lustige Romanzen, Kinder-Lieder und episch-lyrische Volks-Lieder.
!!!URL-scan: https://www.digitale-sammlungen.de/de/view/bsb11160571?page=245
!!!ENC: Anna Maria Matuszewska
!!!EEV: 2025/01/27
*-	*-
